images/50242583.svg

<?xml version="1.0" encoding="UTF-8"?>
<svg xmlns="http://www.w3.org/2000/svg" xmlns:xlink="http://www.w3.org/1999/xlink" width="300pt" height="300pt" viewBox="0 0 300 300" version="1.1">
<defs>
<g>
<symbol overflow="visible" id="glyph0-0">
<path style="stroke:none;" d="M 0.59375 2.125 L 0.59375 -8.46875 L 6.59375 -8.46875 L 6.59375 2.125 Z M 1.265625 1.453125 L 5.9375 1.453125 L 5.9375 -7.78125 L 1.265625 -7.78125 Z M 1.265625 1.453125 "/>
</symbol>
<symbol overflow="visible" id="glyph0-1">
<path style="stroke:none;" d="M 1.171875 -8.75 L 6.203125 -8.75 L 6.203125 -7.75 L 2.359375 -7.75 L 2.359375 -5.171875 L 5.828125 -5.171875 L 5.828125 -4.171875 L 2.359375 -4.171875 L 2.359375 0 L 1.171875 0 Z M 1.171875 -8.75 "/>
</symbol>
<symbol overflow="visible" id="glyph0-2">
<path style="stroke:none;" d="M 1.171875 -8.75 L 2.765625 -8.75 L 6.65625 -1.4375 L 6.65625 -8.75 L 7.796875 -8.75 L 7.796875 0 L 6.203125 0 L 2.328125 -7.3125 L 2.328125 0 L 1.171875 0 Z M 1.171875 -8.75 "/>
</symbol>
<symbol overflow="visible" id="glyph0-3">
<path style="stroke:none;" d="M 1.171875 -8.75 L 2.359375 -8.75 L 2.359375 -5.15625 L 6.65625 -5.15625 L 6.65625 -8.75 L 7.84375 -8.75 L 7.84375 0 L 6.65625 0 L 6.65625 -4.171875 L 2.359375 -4.171875 L 2.359375 0 L 1.171875 0 Z M 1.171875 -8.75 "/>
</symbol>
</g>
</defs>
<g id="surface23625">
<rect x="0" y="0" width="300" height="300" style="fill:rgb(100%,100%,100%);fill-opacity:1;stroke:none;"/>
<path style="fill:none;stroke-width:1.2;stroke-linecap:butt;stroke-linejoin:miter;stroke:rgb(20%,80%,80%);stroke-opacity:1;stroke-miterlimit:10;" d="M 35.25 207.269531 L 46.992188 197.007812 "/>
<path style="fill:none;stroke-width:1.2;stroke-linecap:butt;stroke-linejoin:miter;stroke:rgb(0%,0%,0%);stroke-opacity:1;stroke-miterlimit:10;" d="M 46.992188 197.007812 L 58.734375 186.75 "/>
<path style=" stroke:none;fill-rule:nonzero;fill:rgb(100%,100%,100%);fill-opacity:1;" d="M 28.25 200.269531 L 35.25 200.269531 L 35.25 214.269531 L 28.25 214.269531 Z M 28.25 200.269531 "/>
<g style="fill:rgb(20%,80%,80%);fill-opacity:1;">
  <use xlink:href="#glyph0-1" x="28.25" y="211.408203"/>
</g>
<path style="fill:none;stroke-width:1.2;stroke-linecap:butt;stroke-linejoin:miter;stroke:rgb(0%,0%,0%);stroke-opacity:1;stroke-miterlimit:10;" d="M 58.734375 186.75 L 52.703125 156.148438 "/>
<path style="fill:none;stroke-width:1.2;stroke-linecap:butt;stroke-linejoin:miter;stroke:rgb(0%,0%,0%);stroke-opacity:1;stroke-miterlimit:10;" d="M 65.332031 182.269531 L 60.503906 157.789062 "/>
<path style="fill:none;stroke-width:1.2;stroke-linecap:butt;stroke-linejoin:miter;stroke:rgb(0%,0%,0%);stroke-opacity:1;stroke-miterlimit:10;" d="M 88.25 196.824219 L 58.734375 186.75 "/>
<path style="fill:none;stroke-width:1.2;stroke-linecap:butt;stroke-linejoin:miter;stroke:rgb(0%,0%,0%);stroke-opacity:1;stroke-miterlimit:10;" d="M 52.703125 156.148438 L 76.1875 135.625 "/>
<path style="fill:none;stroke-width:1.2;stroke-linecap:butt;stroke-linejoin:miter;stroke:rgb(0%,0%,0%);stroke-opacity:1;stroke-miterlimit:10;" d="M 76.1875 135.625 L 105.703125 145.703125 "/>
<path style="fill:none;stroke-width:1.2;stroke-linecap:butt;stroke-linejoin:miter;stroke:rgb(0%,0%,0%);stroke-opacity:1;stroke-miterlimit:10;" d="M 76.765625 143.578125 L 100.378906 151.640625 "/>
<path style="fill:none;stroke-width:1.2;stroke-linecap:butt;stroke-linejoin:miter;stroke:rgb(0%,0%,0%);stroke-opacity:1;stroke-miterlimit:10;" d="M 105.703125 145.703125 L 108.71875 161 "/>
<path style="fill:none;stroke-width:1.2;stroke-linecap:butt;stroke-linejoin:miter;stroke:rgb(0%,0%,100%);stroke-opacity:1;stroke-miterlimit:10;" d="M 108.71875 161 L 111.734375 176.300781 "/>
<path style="fill:none;stroke-width:1.2;stroke-linecap:butt;stroke-linejoin:miter;stroke:rgb(0%,0%,0%);stroke-opacity:1;stroke-miterlimit:10;" d="M 105.703125 145.703125 L 129.183594 125.179688 "/>
<path style="fill:none;stroke-width:1.2;stroke-linecap:butt;stroke-linejoin:miter;stroke:rgb(0%,0%,100%);stroke-opacity:1;stroke-miterlimit:10;" d="M 111.734375 176.300781 L 99.992188 186.5625 "/>
<path style="fill:none;stroke-width:1.2;stroke-linecap:butt;stroke-linejoin:miter;stroke:rgb(0%,0%,0%);stroke-opacity:1;stroke-miterlimit:10;" d="M 99.992188 186.5625 L 88.25 196.824219 "/>
<path style="fill:none;stroke-width:1.2;stroke-linecap:butt;stroke-linejoin:miter;stroke:rgb(0%,0%,100%);stroke-opacity:1;stroke-miterlimit:10;" d="M 104.554688 172.828125 L 95.164062 181.039062 "/>
<path style="fill:none;stroke-width:1.2;stroke-linecap:butt;stroke-linejoin:miter;stroke:rgb(0%,0%,0%);stroke-opacity:1;stroke-miterlimit:10;" d="M 95.164062 181.039062 L 85.769531 189.246094 "/>
<path style=" stroke:none;fill-rule:nonzero;fill:rgb(100%,100%,100%);fill-opacity:1;" d="M 107.734375 169.300781 L 116.734375 169.300781 L 116.734375 183.300781 L 107.734375 183.300781 Z M 107.734375 169.300781 "/>
<g style="fill:rgb(0%,0%,100%);fill-opacity:1;">
  <use xlink:href="#glyph0-2" x="107.734375" y="180.439453"/>
</g>
<path style="fill:none;stroke-width:1.2;stroke-linecap:butt;stroke-linejoin:miter;stroke:rgb(0%,0%,0%);stroke-opacity:1;stroke-miterlimit:10;" d="M 129.183594 125.179688 L 127.785156 109.648438 "/>
<path style="fill:none;stroke-width:1.2;stroke-linecap:butt;stroke-linejoin:miter;stroke:rgb(0%,0%,100%);stroke-opacity:1;stroke-miterlimit:10;" d="M 127.785156 109.648438 L 126.386719 94.117188 "/>
<path style="fill:none;stroke-width:1.2;stroke-linecap:butt;stroke-linejoin:miter;stroke:rgb(0%,0%,0%);stroke-opacity:1;stroke-miterlimit:10;" d="M 136.214844 121.414062 L 135.09375 108.988281 "/>
<path style="fill:none;stroke-width:1.2;stroke-linecap:butt;stroke-linejoin:miter;stroke:rgb(0%,0%,100%);stroke-opacity:1;stroke-miterlimit:10;" d="M 135.09375 108.988281 L 133.972656 96.566406 "/>
<path style="fill:none;stroke-width:1.2;stroke-linecap:butt;stroke-linejoin:miter;stroke:rgb(0%,0%,0%);stroke-opacity:1;stroke-miterlimit:10;" d="M 159.59375 132.113281 L 129.183594 125.179688 "/>
<path style="fill:none;stroke-width:1.2;stroke-linecap:butt;stroke-linejoin:miter;stroke:rgb(0%,0%,100%);stroke-opacity:1;stroke-miterlimit:10;" d="M 126.386719 94.117188 L 155.0625 81.855469 "/>
<path style=" stroke:none;fill-rule:nonzero;fill:rgb(100%,100%,100%);fill-opacity:1;" d="M 122.386719 87.117188 L 131.386719 87.117188 L 131.386719 101.117188 L 122.386719 101.117188 Z M 122.386719 87.117188 "/>
<g style="fill:rgb(0%,0%,100%);fill-opacity:1;">
  <use xlink:href="#glyph0-2" x="122.386719" y="98.255859"/>
</g>
<path style="fill:none;stroke-width:1.2;stroke-linecap:butt;stroke-linejoin:miter;stroke:rgb(0%,0%,100%);stroke-opacity:1;stroke-miterlimit:10;" d="M 155.0625 81.855469 L 165.324219 93.597656 "/>
<path style="fill:none;stroke-width:1.2;stroke-linecap:butt;stroke-linejoin:miter;stroke:rgb(0%,0%,0%);stroke-opacity:1;stroke-miterlimit:10;" d="M 165.324219 93.597656 L 175.585938 105.339844 "/>
<path style=" stroke:none;fill-rule:nonzero;fill:rgb(100%,100%,100%);fill-opacity:1;" d="M 146.0625 74.855469 L 164.0625 74.855469 L 164.0625 88.855469 L 146.0625 88.855469 Z M 146.0625 74.855469 "/>
<g style="fill:rgb(0%,0%,100%);fill-opacity:1;">
  <use xlink:href="#glyph0-2" x="146.0625" y="85.994141"/>
  <use xlink:href="#glyph0-3" x="155.039062" y="85.994141"/>
</g>
<path style="fill:none;stroke-width:1.2;stroke-linecap:butt;stroke-linejoin:miter;stroke:rgb(0%,0%,0%);stroke-opacity:1;stroke-miterlimit:10;" d="M 175.585938 105.339844 L 159.59375 132.113281 "/>
<path style="fill:none;stroke-width:1.2;stroke-linecap:butt;stroke-linejoin:miter;stroke:rgb(0%,0%,0%);stroke-opacity:1;stroke-miterlimit:10;" d="M 167.6875 104.253906 L 154.890625 125.675781 "/>
<path style="fill:none;stroke-width:1.2;stroke-linecap:butt;stroke-linejoin:miter;stroke:rgb(0%,0%,0%);stroke-opacity:1;stroke-miterlimit:10;" d="M 159.59375 132.113281 L 171.855469 160.792969 "/>
<path style="fill:none;stroke-width:1.2;stroke-linecap:butt;stroke-linejoin:miter;stroke:rgb(0%,0%,0%);stroke-opacity:1;stroke-miterlimit:10;" d="M 171.855469 160.792969 L 202.820312 164.511719 "/>
<path style="fill:none;stroke-width:1.2;stroke-linecap:butt;stroke-linejoin:miter;stroke:rgb(0%,0%,0%);stroke-opacity:1;stroke-miterlimit:10;" d="M 174.074219 168.449219 L 198.847656 171.425781 "/>
<path style="fill:none;stroke-width:1.2;stroke-linecap:butt;stroke-linejoin:miter;stroke:rgb(0%,0%,0%);stroke-opacity:1;stroke-miterlimit:10;" d="M 153.148438 185.75 L 171.855469 160.792969 "/>
<path style="fill:none;stroke-width:1.2;stroke-linecap:butt;stroke-linejoin:miter;stroke:rgb(0%,0%,0%);stroke-opacity:1;stroke-miterlimit:10;" d="M 202.820312 164.511719 L 215.082031 193.1875 "/>
<path style="fill:none;stroke-width:1.2;stroke-linecap:butt;stroke-linejoin:miter;stroke:rgb(0%,0%,0%);stroke-opacity:1;stroke-miterlimit:10;" d="M 221.523438 139.554688 L 202.820312 164.511719 "/>
<path style="fill:none;stroke-width:1.2;stroke-linecap:butt;stroke-linejoin:miter;stroke:rgb(0%,0%,0%);stroke-opacity:1;stroke-miterlimit:10;" d="M 215.082031 193.1875 L 205.730469 205.664062 "/>
<path style="fill:none;stroke-width:1.2;stroke-linecap:butt;stroke-linejoin:miter;stroke:rgb(0%,0%,100%);stroke-opacity:1;stroke-miterlimit:10;" d="M 205.730469 205.664062 L 196.378906 218.144531 "/>
<path style="fill:none;stroke-width:1.2;stroke-linecap:butt;stroke-linejoin:miter;stroke:rgb(0%,0%,0%);stroke-opacity:1;stroke-miterlimit:10;" d="M 207.339844 191.28125 L 199.855469 201.265625 "/>
<path style="fill:none;stroke-width:1.2;stroke-linecap:butt;stroke-linejoin:miter;stroke:rgb(0%,0%,100%);stroke-opacity:1;stroke-miterlimit:10;" d="M 199.855469 201.265625 L 192.375 211.246094 "/>
<path style="fill:none;stroke-width:1.2;stroke-linecap:butt;stroke-linejoin:miter;stroke:rgb(0%,0%,0%);stroke-opacity:1;stroke-miterlimit:10;" d="M 215.082031 193.1875 L 246.046875 196.90625 "/>
<path style="fill:none;stroke-width:1.2;stroke-linecap:butt;stroke-linejoin:miter;stroke:rgb(0%,0%,100%);stroke-opacity:1;stroke-miterlimit:10;" d="M 196.378906 218.144531 L 180.894531 216.285156 "/>
<path style="fill:none;stroke-width:1.2;stroke-linecap:butt;stroke-linejoin:miter;stroke:rgb(0%,0%,0%);stroke-opacity:1;stroke-miterlimit:10;" d="M 180.894531 216.285156 L 165.410156 214.425781 "/>
<path style=" stroke:none;fill-rule:nonzero;fill:rgb(100%,100%,100%);fill-opacity:1;" d="M 192.378906 211.144531 L 201.378906 211.144531 L 201.378906 225.144531 L 192.378906 225.144531 Z M 192.378906 211.144531 "/>
<g style="fill:rgb(0%,0%,100%);fill-opacity:1;">
  <use xlink:href="#glyph0-2" x="192.378906" y="222.283203"/>
</g>
<path style="fill:none;stroke-width:1.2;stroke-linecap:butt;stroke-linejoin:miter;stroke:rgb(0%,0%,0%);stroke-opacity:1;stroke-miterlimit:10;" d="M 165.410156 214.425781 L 153.148438 185.75 "/>
<path style="fill:none;stroke-width:1.2;stroke-linecap:butt;stroke-linejoin:miter;stroke:rgb(0%,0%,0%);stroke-opacity:1;stroke-miterlimit:10;" d="M 170.933594 208.671875 L 161.125 185.730469 "/>
<path style="fill:none;stroke-width:1.2;stroke-linecap:butt;stroke-linejoin:miter;stroke:rgb(0%,0%,0%);stroke-opacity:1;stroke-miterlimit:10;" d="M 246.046875 196.90625 L 264.75 171.949219 "/>
<path style="fill:none;stroke-width:1.2;stroke-linecap:butt;stroke-linejoin:miter;stroke:rgb(0%,0%,0%);stroke-opacity:1;stroke-miterlimit:10;" d="M 242.042969 190.011719 L 257.007812 170.042969 "/>
<path style="fill:none;stroke-width:1.2;stroke-linecap:butt;stroke-linejoin:miter;stroke:rgb(0%,0%,0%);stroke-opacity:1;stroke-miterlimit:10;" d="M 264.75 171.949219 L 252.488281 143.273438 "/>
<path style="fill:none;stroke-width:1.2;stroke-linecap:butt;stroke-linejoin:miter;stroke:rgb(0%,0%,0%);stroke-opacity:1;stroke-miterlimit:10;" d="M 252.488281 143.273438 L 221.523438 139.554688 "/>
<path style="fill:none;stroke-width:1.2;stroke-linecap:butt;stroke-linejoin:miter;stroke:rgb(0%,0%,0%);stroke-opacity:1;stroke-miterlimit:10;" d="M 248.515625 150.1875 L 223.746094 147.210938 "/>
</g>
</svg>

<svg xmlns="http://www.w3.org/2000/svg" xmlns:xlink="http://www.w3.org/1999/xlink" width="300pt" height="300pt" viewBox="0 0 300 300"><defs><symbol overflow="visible"><path d="M.594 2.125V-8.47h6V2.126zm.672-.672h4.671V-7.78h-4.67zm0 0"/></symbol><symbol overflow="visible" id="a"><path d="M1.172-8.75h5.03v1H2.36v2.578h3.468v1h-3.47V0H1.173zm0 0"/></symbol><symbol overflow="visible" id="b"><path d="M1.172-8.75h1.594l3.89 7.313V-8.75h1.14V0H6.204L2.328-7.313V0H1.172zm0 0"/></symbol><symbol overflow="visible" id="c"><path d="M1.172-8.75H2.36v3.594h4.296V-8.75h1.188V0H6.656v-4.172H2.36V0H1.17zm0 0"/></symbol></defs><g><path fill="#fff" d="M0 0h300v300H0z"/><path d="M35.25 207.27l11.742-10.262" stroke-width="1.2" stroke="#3cc" stroke-miterlimit="10" fill="none"/><path d="M46.992 197.008l11.742-10.258" stroke-width="1.2" stroke="#000" stroke-miterlimit="10" fill="none"/><path d="M28.25 200.27h7v14h-7zm0 0" fill="#fff"/><use xlink:href="#a" x="28.25" y="211.408" fill="#3cc"/><path d="M58.734 186.75l-6.03-30.602M65.332 182.27l-4.828-24.48M88.25 196.824L58.734 186.75M52.703 156.148l23.484-20.523M76.188 135.625l29.515 10.078M76.766 143.578l23.613 8.063M105.703 145.703L108.72 161" stroke-width="1.2" stroke="#000" stroke-miterlimit="10" fill="none"/><path d="M108.72 161l3.014 15.3" stroke-width="1.2" stroke="#00f" stroke-miterlimit="10" fill="none"/><path d="M105.703 145.703l23.48-20.523" stroke-width="1.2" stroke="#000" stroke-miterlimit="10" fill="none"/><path d="M111.734 176.3l-11.742 10.262" stroke-width="1.2" stroke="#00f" stroke-miterlimit="10" fill="none"/><path d="M99.992 186.563l-11.742 10.26" stroke-width="1.2" stroke="#000" stroke-miterlimit="10" fill="none"/><path d="M104.555 172.828l-9.39 8.21" stroke-width="1.2" stroke="#00f" stroke-miterlimit="10" fill="none"/><path d="M95.164 181.04l-9.394 8.206" stroke-width="1.2" stroke="#000" stroke-miterlimit="10" fill="none"/><path d="M107.734 169.3h9v14h-9zm0 0" fill="#fff"/><use xlink:href="#b" x="107.734" y="180.439" fill="#00f"/><path d="M129.184 125.18l-1.4-15.532" stroke-width="1.2" stroke="#000" stroke-miterlimit="10" fill="none"/><path d="M127.785 109.648l-1.398-15.53" stroke-width="1.2" stroke="#00f" stroke-miterlimit="10" fill="none"/><path d="M136.215 121.414l-1.12-12.426" stroke-width="1.2" stroke="#000" stroke-miterlimit="10" fill="none"/><path d="M135.094 108.988l-1.12-12.422" stroke-width="1.2" stroke="#00f" stroke-miterlimit="10" fill="none"/><path d="M159.594 132.113l-30.41-6.933" stroke-width="1.2" stroke="#000" stroke-miterlimit="10" fill="none"/><path d="M126.387 94.117l28.675-12.262" stroke-width="1.2" stroke="#00f" stroke-miterlimit="10" fill="none"/><path d="M122.387 87.117h9v14h-9zm0 0" fill="#fff"/><use xlink:href="#b" x="122.387" y="98.256" fill="#00f"/><path d="M155.063 81.855l10.26 11.743" stroke-width="1.2" stroke="#00f" stroke-miterlimit="10" fill="none"/><path d="M165.324 93.598l10.262 11.742" stroke-width="1.2" stroke="#000" stroke-miterlimit="10" fill="none"/><path d="M146.063 74.855h18v14h-18zm0 0" fill="#fff"/><g fill="#00f"><use xlink:href="#b" x="146.063" y="85.994"/><use xlink:href="#c" x="155.039" y="85.994"/></g><path d="M175.586 105.34l-15.992 26.773M167.688 104.254l-12.797 21.422M159.594 132.113l12.26 28.68M171.855 160.793l30.965 3.72M174.074 168.45l24.774 2.976M153.148 185.75l18.707-24.957M202.82 164.512l12.262 28.675M221.523 139.555l-18.703 24.957M215.082 193.188l-9.352 12.476" stroke-width="1.2" stroke="#000" stroke-miterlimit="10" fill="none"/><path d="M205.73 205.664l-9.35 12.48" stroke-width="1.2" stroke="#00f" stroke-miterlimit="10" fill="none"/><path d="M207.34 191.28l-7.485 9.986" stroke-width="1.2" stroke="#000" stroke-miterlimit="10" fill="none"/><path d="M199.855 201.266l-7.48 9.98" stroke-width="1.2" stroke="#00f" stroke-miterlimit="10" fill="none"/><path d="M215.082 193.188l30.965 3.718" stroke-width="1.2" stroke="#000" stroke-miterlimit="10" fill="none"/><path d="M196.38 218.145l-15.485-1.86" stroke-width="1.2" stroke="#00f" stroke-miterlimit="10" fill="none"/><path d="M180.895 216.285l-15.485-1.86" stroke-width="1.2" stroke="#000" stroke-miterlimit="10" fill="none"/><path d="M192.38 211.145h9v14h-9zm0 0" fill="#fff"/><use xlink:href="#b" x="192.379" y="222.283" fill="#00f"/><path d="M165.41 214.426l-12.262-28.676M170.934 208.672l-9.81-22.942M246.047 196.906l18.703-24.957M242.043 190.012l14.965-19.97M264.75 171.95l-12.262-28.677M252.488 143.273l-30.965-3.718M248.516 150.188l-24.77-2.977" stroke-width="1.2" stroke="#000" stroke-miterlimit="10" fill="none"/></g></svg>
